X:5862
T:Scottisch du pays gallo
O:england
S:Trad 4, 36 / K7 Nr. 43 LA Bouèze, M. Debray
M:2/4
L:1/16
K:C
E2F2 G2A2|GFEF G4|cBcd c2B2|AGAB A2G2|\
E2F2 G2A2|GFEF G4|cGcd e2de|fed2 c4||
defe d3c|BABc G4|AG^FG B2A2|GFED E2C2|\
c2de d3c|BABc G4|AG^FG B2A2|GGBd c4||


